X: 24
T: Boney in the Dumps
%R: jig
B: Cahusac "Annual Collection of Twenty-four favorite Country Dances For the Year 1809", p.12 #2
F: http://imslp.org/wiki/24_Country_Dances_for_the_Year_1809_%28Various%29
F: http://javanese.imslp.info/files/imglnks/usimg/0/0d/IMSLP351863-PMLP71785-wm_cahusac_24_dances_1809.pdf
Z: 2015 by John Chambers  <jc:trillian.mit.edu>
M: 6/8
L: 1/8
K: Bb
% - - - - - - - - - - - - - - - - - - - - - - - - - - - - -
|:\
Bdf dcB | ceg edc | dfd BdB | cAF F3 |\
Bdf DFB | EGB efg | fed cBA | B3 B3 :|
|:\
AcA FGA | Bdf fed | gfe dcB | cAF F3 |\
G2B F2B | G2B F2e | dcB FGA | B3 B3 :|
% - - - - - - - - - - Dance description - - - - - - - - - -
%%begintext align
%% Lead outsides back again Down the
%% mid: up again, Right & left.
%%endtext
